X: 5732
T: Caha Mountains
R: reel
M: 4/4
K: Amixolydian
|:A2AG EGDG|EDB,C D2EA|~G3A ~G2GE|DB,GD B,A,A,2|
A2AG EGDG|EDB,C D2ed|cedB A2EC|DB,ED B,A,A,2:|
|:~c3B ABcA|d2de fded|c2cB ABcA|dfBd cAA2|
c2cB ABcA|d2de fded|(3cde dB A2EC|DB,ED CA,A,2:|

